X: 42410
T: West Clare, The
R: reel
M: 4/4
K: Eminor
EF|G2EF GBBB|BFAG EDBA|G2EF GBBB|BFAG E3F|
G2EF GBBB|BFAG EDBd|edBA GABc|BFAG E3|
e|edBA GABe|edBA GAF2|edBA GABc|BFAG E3|
edBA GABe|edBA GAF2|gafg edBc|BFAG E3|

